view/frontend/web/svg/flags/cw.svg

<svg width="24" height="24" viewbox="0 0 20 15" viewBox="0 0 20 15" fill="none" xmlns="http://www.w3.org/2000/svg">
<g clip-path="url(#clip0_270_60971)">
<rect width="20" height="15" fill="white"/>
<path fill-rule="evenodd" clip-rule="evenodd" d="M0 0V15H20V0H0Z" fill="#2E42A5"/>
<mask id="mask0_270_60971" style="mask-type:luminance" maskUnits="userSpaceOnUse" x="0" y="0" width="20" height="15">
<path fill-rule="evenodd" clip-rule="evenodd" d="M0 0V15H20V0H0Z" fill="white"/>
</mask>
<g mask="url(#mask0_270_60971)">
<path fill-rule="evenodd" clip-rule="evenodd" d="M2.65901 3.84327L1.41599 4.49932L2.01615 3.33158L1.25 2.47697L2.20209 2.44183L2.65901 1.25L3.00771 2.44183L4.12186 2.47697L3.31967 3.33158L3.82857 4.49932L2.65901 3.84327Z" fill="#F7FCFF"/>
<path fill-rule="evenodd" clip-rule="evenodd" d="M7.09516 6.92283L5.56102 7.56547L6.16288 5.95508L4.82903 4.87453H6.42734L7.09516 3.1326L7.6048 4.87453H9.20558L8.06806 5.95508L8.63289 7.56547L7.09516 6.92283Z" fill="#F7FCFF"/>
<path fill-rule="evenodd" clip-rule="evenodd" d="M0 8.75V11.25H20V8.75H0Z" fill="#F9E813"/>
</g>
</g>
<defs>
<clipPath id="clip0_270_60971">
<rect width="20" height="15" fill="white"/>
</clipPath>
</defs>
</svg>

<svg width="24" height="24" viewbox="0 0 20 15" fill="none" xmlns="http://www.w3.org/2000/svg">
  <mask id="a" maskUnits="userSpaceOnUse" x="0" y="0" width="20" height="15">
    <path fill="#fff" d="M0 0h20v15H0z"/>
  </mask>
  <g mask="url(#a)">
    <path fill-rule="evenodd" clip-rule="evenodd" d="M0 0v15h20V0H0z" fill="#2E42A5"/>
    <mask id="b" maskUnits="userSpaceOnUse" x="0" y="0" width="20" height="15">
      <path fill-rule="evenodd" clip-rule="evenodd" d="M0 0v15h20V0H0z" fill="#fff"/>
    </mask>
    <g mask="url(#b)" fill-rule="evenodd" clip-rule="evenodd">
      <path d="M2.659 3.843L1.416 4.5l.6-1.167-.766-.855.952-.035.457-1.192.349 1.192 1.114.035-.802.855.509 1.167-1.17-.656zm4.436 3.08l-1.534.642.602-1.61-1.334-1.08h1.598l.668-1.742.51 1.742h1.6l-1.137 1.08.565 1.61-1.538-.642z" fill="#F7FCFF"/>
      <path d="M0 8.75v2.5h20v-2.5H0z" fill="#F9E813"/>
    </g>
  </g>
</svg>
